!!!COM: Mozart, Wolfgang Amadeus
!!!OTL: String Quartet No. 4 in C Major
!!!OMD: Allegro
!!!OMV: 1
!!!SCT1: K<sup>1</sup> 157
!!!SCA: Chronologisch-thematisches Verzeichnis sämtlicher Tonwerke Wolfgang Amade Mozarts (L. von Köchel; 1862, 2/1905, 3/1937, 1947)
!!!SCT2: K<sup>6</sup> 157
!!!YOR: Breitkopf & Härtel Edition
!!!ENC: Edmund Correia, Jr.
!!!CDT: 1756/1/27/-1791/12/5/
!!!OCY: Österreich
!!!YEC: Copyright (c) 1994, 2000 Center for Computer Assisted Research in the Humanities
!!!YEM: Rights to all derivative editions reserved.
!!!YEM: Refer to licensing agreement for further details.
!!!YEN: United States of America
**kern	**dynam	**kern	**dynam	**kern	**dynam	**kern	**dynam
*I:Violoncello	*I:Violoncello	*I:Viola	*I:Viola	*I:Violino 2	*I:Violino 2	*I:Violino 1	*I:Violino 1
*>[A,A,B,B]	*	*>[A,A,B,B]	*	*>[A,A,B,B]	*	*>[A,A,B,B]	*
*>A	*	*>A	*	*>A	*	*>A	*
*clefF4	*	*clefC3	*	*clefG2	*	*clefG2	*
*k[]	*	*k[]	*	*k[]	*	*k[]	*
*C:	*	*C:	*	*C:	*	*C:	*
*M4/4	*	*M4/4	*	*M4/4	*	*M4/4	*
8C/L	p	[1G/	p	(4.c/	p	(4.c/	p
8C/	.	.	.	.	.	.	.
8C/	.	.	.	.	.	.	.
8C/J	.	.	.	8B/)	.	8d/)	.
8C/L	.	.	.	4c'/	.	4e'/	.
8C/	.	.	.	.	.	.	.
8C/	.	.	.	4c'/	.	4e'/	.
8C/J	.	.	.	.	.	.	.
=2	=2	=2	=2	=2	=2	=2	=2
8GG/L	.	2G/_	.	(8c/L	.	(8e/L	.
8GG/	.	.	.	8B/	.	8d/	.
8GG/	.	.	.	8d/	.	8f/	.
8GG/J	.	.	.	8c/J	.	8e/J	.
4GG/	.	(8G/L]	.	4B/)	.	4d/)	.
.	.	8B/	.	.	.	.	.
4r	.	8d/	.	4r	.	4r	.
.	.	8B/J)	.	.	.	.	.
=3	=3	=3	=3	=3	=3	=3	=3
8GG/L	.	[1G/	.	(4.B/	.	(4.d/	.
8GG/	.	.	.	.	.	.	.
8GG/	.	.	.	.	.	.	.
8GG/J	.	.	.	8c/)	.	8e/)	.
8GG/L	.	.	.	4d'/	.	4f'/	.
8GG/	.	.	.	.	.	.	.
8GG/	.	.	.	4d'/	.	4f'/	.
8GG/J	.	.	.	.	.	.	.
=4	=4	=4	=4	=4	=4	=4	=4
8C/L	.	2G/_	.	(8d/L	.	(8f/L	.
8C/	.	.	.	8c/	.	8e/	.
8C/	.	.	.	8e/	.	8g/	.
8C/J	.	.	.	8d/J	.	8f/J	.
4C/	.	8G\L]	.	4c/)	.	4e/)	.
.	.	(8e\	.	.	.	.	.
4r	.	8g\	.	4r	.	4r	.
.	.	8e\J)	.	.	.	.	.
=5	=5	=5	=5	=5	=5	=5	=5
8F#\L	.	(2c\	.	(2.d/	.	(4.a/	.
8F#\	.	.	.	.	.	.	.
8F#\	.	.	.	.	.	.	.
8F#\J	.	.	.	.	.	8b\	.
8F#\L	.	4A/	.	.	.	4cc\)	.
8F#\	.	.	.	.	.	.	.
8F#\	.	4d\)	.	4a/)	.	4cc'\	.
8F#\J	.	.	.	.	.	.	.
=6	=6	=6	=6	=6	=6	=6	=6
8G\L	.	2G/	.	(4a/	.	(4cc\	.
8G\	.	.	.	.	.	.	.
8G\	.	.	.	4g/)	.	4b\)	.
8G\J	.	.	.	.	.	.	.
8G\L	.	2r	.	4f'/	.	4a'/	.
8G\	.	.	.	.	.	.	.
8G\	.	.	.	4e'/	.	4g'/	.
8G\J	.	.	.	.	.	.	.
=7	=7	=7	=7	=7	=7	=7	=7
8GG/L	.	2G/	.	(4e/	.	(4g/	.
8GG/	.	.	.	.	.	.	.
8GG/	.	.	.	4d/)	.	4f/)	.
8GG/J	.	.	.	.	.	.	.
8GG/L	.	2r	.	4c'/	.	4e'/	.
8GG/	.	.	.	.	.	.	.
8GG/	.	.	.	4B'/	.	4d'/	.
8GG/J	.	.	.	.	.	.	.
=8	=8	=8	=8	=8	=8	=8	=8
8C/	.	8r	.	4c/	.	4c/	.
8C'\L	f	8E'/L	f	.	.	.	.
8D'\	.	8F'/	.	4r	.	4r	.
8E'\J	.	8G'/J	.	.	.	.	.
8Fn'\L	.	8A'/L	.	2r	.	2r	.
8G'\	.	8B'/	.	.	.	.	.
8A'\	.	8c'/	.	.	.	.	.
8B'\J	.	8d'/J	.	.	.	.	.
=9	=9	=9	=9	=9	=9	=9	=9
4c\	.	8e\	.	(4.cc\	f	(4.cc\	f
.	.	4g\	.	.	.	.	.
4G\	.	.	.	.	.	.	.
.	.	4g\	.	8b\)	.	8dd\)	.
4E\	.	.	.	4cc'\	.	4ee'\xx	.
.	.	4g\	.	.	.	.	.
4C/	.	.	.	4cc'\	.	4ee'\	.
.	.	[8g\	.	.	.	.	.
=10	=10	=10	=10	=10	=10	=10	=10
4G\	.	8g\]	.	(8cc\L	.	(8ee\L	.
.	.	4g\	.	8b\	.	8dd\	.
4GG/	.	.	.	8dd\	.	8ff\	.
.	.	4g\	.	8cc\J	.	8ee\J	.
2r	.	.	.	4b\)	.	4dd\)	.
.	.	(8g\L	.	.	.	.	.
.	.	8f#\	.	4r	.	4r	.
.	.	8g\J)	.	.	.	.	.
=11	=11	=11	=11	=11	=11	=11	=11
4G\	.	8G/	.	(4.b\	.	(4.dd\	.
.	.	4g\	.	.	.	.	.
4D\	.	.	.	.	.	.	.
.	.	4g\	.	8cc\)	.	8ee\)	.
4BB/	.	.	.	4dd'\xx	.	4ff'\xx	.
.	.	4g\	.	.	.	.	.
4GG/	.	.	.	4dd'\xx	.	4ff'\xx	.
.	.	[8g\	.	.	.	.	.
=12	=12	=12	=12	=12	=12	=12	=12
4C/	.	8g\]	.	(8dd\L	.	(8ff\L	.
.	.	4g\	.	8cc\	.	8ee\	.
4c\	.	.	.	8ee\	.	8gg\	.
.	.	4g\	.	8dd\J	.	8ff\J	.
2r	.	.	.	4cc\)	.	4ee\)	.
.	.	(8cc\L	.	.	.	.	.
.	.	8b\	.	4r	.	4r	.
.	.	8cc\J)	.	.	.	.	.
=13	=13	=13	=13	=13	=13	=13	=13
8r	.	4c\	.	4.ee\	.	4.gg\	.
(8c\L	.	.	.	.	.	.	.
8B\	.	4r	.	.	.	.	.
8c\J)	.	.	.	16cc\LL	.	16ee\LL	.
.	.	.	.	16dd\JJ	.	16ff\JJ	.
4C/	.	8r	.	8ee\L	.	8gg\L	.
.	.	(8c\L	.	16ff\L	.	16aa\L	.
.	.	.	.	16gg\JJ	.	16bb\JJ	.
!	!	!	!	! 16bbP/	!	! 16dddP/	!
4r	.	8B\	.	8aap\L	.	8cccp\L	.
.	.	8c\J)	.	16gg\L	.	16bb\L	.
.	.	.	.	16ff\JJ	.	16aa\JJ	.
=14	=14	=14	=14	=14	=14	=14	=14
8r	.	4C/	.	4.ee\	.	4.gg\	.
(8C/L	.	.	.	.	.	.	.
8BB/	.	4r	.	.	.	.	.
8C/J)	.	.	.	16cc\LL	.	16ee\LL	.
.	.	.	.	16dd\JJ	.	16ff\JJ	.
4CC/	.	8r	.	8ee\L	.	8gg\L	.
.	.	(8cc\L	.	16ff\L	.	16aa\L	.
.	.	.	.	16gg\JJ	.	16bb\JJ	.
!	!	!	!	! 16bbP/	!	! 16dddP/	!
4r	.	8b\	.	8aap\L	.	8cccp\L	.
.	.	8cc\J)	.	16gg\L	.	16bb\L	.
.	.	.	.	16ff\JJ	.	16aa\JJ	.
=15	=15	=15	=15	=15	=15	=15	=15
!	!	!	!	! 16ffP/	!	! 16aaP/	!
4C/	.	8c'\	.	8eep\L	.	8ggp\L	.
.	.	(8g\L	.	16dd\L	.	16ff\L	.
.	.	.	.	16cc\JJ	.	16ee\JJ	.
4r	.	8f\	.	8b\L	.	8dd\L	.
.	.	8e\J)	.	8cc\J	.	8ee\J	.
!	!	!	!	! 16eeP/	!	! 16ggP/	!
4G\	.	8r	.	8ddp\L	.	8ffp\L	.
.	.	(8f\L	.	16cc\L	.	16ee\L	.
.	.	.	.	16b\JJ	.	16dd\JJ	.
4r	.	8e\	.	8a/L	.	8cc\L	.
.	.	8d\J)	.	8b/J	.	8dd\J	.
=16	=16	=16	=16	=16	=16	=16	=16
(4c\	.	4c\	.	(8.cc/L	.	(8.ee\L	.
.	.	.	.	16e/Jk)	.	16cc\Jk)	.
4F\)	.	8r	.	(8.c/L	.	(8.a\L	.
.	.	8A/	.	.	.	.	.
.	.	.	.	16f/Jk)	.	16dd\Jk)	.
(4G\	.	2G/	.	(4e/	.	(4cc\	.
4GG/)	.	.	.	4d/)	.	4b\)	.
=17	=17	=17	=17	=17	=17	=17	=17
!	!	!	!	! 16fP/	!	! 16aaP/	!
4C/	.	8r	.	8ep/L	.	8ggp\L	.
.	.	(8G/L	.	16d/L	.	16ff\L	.
.	.	.	.	16c/JJ	.	16ee\JJ	.
4r	.	8F/	.	(16B/LL	.	(16dd\LL	.
.	.	.	.	16c/)	.	16ee\)	.
.	.	8E/J)	.	(16B/	.	(16dd\	.
.	.	.	.	16c/JJ)	.	16ee\JJ)	.
!	!	!	!	! 16eP/	!	! 16ggP/	!
4GG/	.	8r	.	8dp/L	.	8ffp\L	.
.	.	(8F/L	.	16c/L	.	16ee\L	.
.	.	.	.	16B/JJ	.	16dd\JJ	.
4r	.	8E/	.	(16A/LL	.	(16cc\LL	.
.	.	.	.	16B/)	.	16dd\)	.
.	.	8D/J)	.	(16A/	.	(16cc\	.
.	.	.	.	16B/JJ)	.	16dd\JJ)	.
=18	=18	=18	=18	=18	=18	=18	=18
(4C/	.	4C/	.	4c/	.	(16ee\LL	.
.	.	.	.	.	.	16dd\	.
.	.	.	.	.	.	16ee\)	.
.	.	.	.	.	.	16cc'\JJ	.
4FF/)	.	8r	.	(16c/LL	.	(16a\LL	.
.	.	.	.	16d/	.	16b\	.
.	.	8A/	.	16e/	.	16cc\	.
.	.	.	.	16f/JJ)	.	16dd\JJ)	.
(4GG/	.	2G/	.	(4e/	.	(4cc\	.
4F\)	.	.	.	4d/)	.	4b\)	.
=19	=19	=19	=19	=19	=19	=19	=19
8E\L	.	8G/L	.	(4.c/	.	(4.cc\	.
8E\	.	8G/	.	.	.	.	.
8C\	.	8E/	.	.	.	.	.
8C\J	.	8E/J	.	16d/LL	.	16dd\LL	.
.	.	.	.	16e/JJ)	.	16ee\JJ)	.
(8A\L	.	(8c\L	.	(8f/L	.	(8ff\L	.
8G\	.	8e\	.	8g/	.	8gg\	.
8F\	.	8f\	.	8a/)	.	8aa\	.
8D\J)	.	8a\J)	.	8dd'/J	.	8ff\J)	.
=20	=20	=20	=20	=20	=20	=20	=20
8G\L	.	8g\L	.	(2cc\	.	(2ee\	.
8G\	.	8g\	.	.	.	.	.
8G\	.	8g\	.	.	.	.	.
8G\J	.	8g\J	.	.	.	.	.
4GG/	.	8G\L	.	4b\)	.	4dd\)	.
.	.	8g\	.	.	.	.	.
4r	.	8d\	.	4r	.	4r	.
.	.	8B\J	.	.	.	.	.
=21	=21	=21	=21	=21	=21	=21	=21
8G\L	.	4G/	.	1r	.	2bb\	.
8G\	.	.	.	.	.	.	.
8G\	.	4r	.	.	.	.	.
8G\J	.	.	.	.	.	.	.
!	!	!	!	!	!	! 16aaP/	!
8G\L	.	2r	.	.	.	4ggp\	.
8G\	.	.	.	.	.	.	.
!	!	!	!	!	!	! 16ffP/	!
8G\	.	.	.	.	.	4eep\	.
8G\J	.	.	.	.	.	.	.
=22	=22	=22	=22	=22	=22	=22	=22
8A\L	.	4r	.	2ee\	.	(8dd\L	.
8A\	.	.	.	.	.	8cc\)	.
8A\	.	(4A/	.	.	.	(8b\	.
8A\J	.	.	.	.	.	8cc\J)	.
!	!	!	!	! 16ddP/	!	!	!
8A\L	.	4e\	.	4ccp\	.	4A/	.
8A\	.	.	.	.	.	.	.
!	!	!	!	! 16bP/	!	!	!
8A\	.	4c\)	.	4ap/	.	4r	.
8A\J	.	.	.	.	.	.	.
=23	=23	=23	=23	=23	=23	=23	=23
8D\L	.	4d\	.	(8g/L	.	2aa\	.
8D\	.	.	.	8f#/)	.	.	.
8D\	.	4r	.	(8e/	.	.	.
8D\J	.	.	.	8f#/J)	.	.	.
!	!	!	!	!	!	! 16ggP/	!
8D\L	.	2r	.	4A/	.	4ff#p\	.
8D\	.	.	.	.	.	.	.
!	!	!	!	!	!	! 16eeP/	!
8D\	.	.	.	4r	.	4ddp\	.
8D\J	.	.	.	.	.	.	.
=24	=24	=24	=24	=24	=24	=24	=24
8G\L	.	4r	.	2dd\	.	(8cc\L	.
8G\	.	.	.	.	.	8b\)	.
8G\	.	(4G/	.	.	.	(8a\	.
8G\J	.	.	.	.	.	8b\J)	.
!	!	!	!	! 16ccP/	!	!	!
8G\L	.	4d\	.	4bp\	.	4G/	.
8G\	.	.	.	.	.	.	.
!	!	!	!	! 16aP/	!	!	!
8G\	.	4B/)	.	4gp/	.	4r	.
8G\J	.	.	.	.	.	.	.
=25	=25	=25	=25	=25	=25	=25	=25
4C/	.	(16c\LL	.	4g/	.	(8.ee\L	.
.	.	16d\	.	.	.	.	.
.	.	16c\	.	.	.	.	.
.	.	16B\JJ	.	.	.	16gg\Jk)	.
4r	.	16c\LL	.	4r	.	(8.ggT\L	.
.	.	16d\	.	.	.	.	.
.	.	16e\	.	.	.	.	.
.	.	16c\JJ)	.	.	.	32ff#\LL	.
.	.	.	.	.	.	32gg\JJJ)	.
4BB/	.	2B/	.	(8.G/L	.	(4.dd\	.
.	.	.	.	16g/Jk)	.	.	.
4r	.	.	.	(8.gT/L	.	.	.
.	.	.	.	.	.	8b\)	.
.	.	.	.	32f#/LL	.	.	.
.	.	.	.	32g/JJJ)	.	.	.
=26	=26	=26	=26	=26	=26	=26	=26
4E\	.	(8.e\L	.	[2G/	.	(16cc\LL	.
.	.	.	.	.	.	16dd\	.
.	.	.	.	.	.	16cc\	.
.	.	16g\Jk)	.	.	.	16b\JJ	.
4r	.	(8.gT\L	.	.	.	16cc\LL	.
.	.	.	.	.	.	16dd\	.
.	.	.	.	.	.	16ee\	.
.	.	32f#\LL	.	.	.	16cc\JJ)	.
.	.	32g\JJJ)	.	.	.	.	.
4D\	.	(4.d\	.	16G/LL]	.	2b\	.
.	.	.	.	(16g/	.	.	.
.	.	.	.	16f#/	.	.	.
.	.	.	.	16g/JJ	.	.	.
4r	.	.	.	16a/LL	.	.	.
.	.	.	.	16g/	.	.	.
.	.	8B/)	.	16f#/	.	.	.
.	.	.	.	16g/JJ)	.	.	.
=27	=27	=27	=27	=27	=27	=27	=27
4C/	.	(16c\LL	.	4g/	.	(8.ee\L	.
.	.	16d\	.	.	.	.	.
.	.	16c\	.	.	.	.	.
.	.	16B\JJ	.	.	.	16gg\Jk)	.
4r	.	16c\LL	.	4r	.	(8.ggT\L	.
.	.	16e\	.	.	.	.	.
.	.	16d\	.	.	.	.	.
.	.	16c\JJ)	.	.	.	32ff#\LL	.
.	.	.	.	.	.	32gg\JJJ)	.
4BB/	.	2B/	.	(8.G/L	.	(4.dd\	.
.	.	.	.	16g/Jk)	.	.	.
4r	.	.	.	(8.gT/L	.	.	.
.	.	.	.	.	.	8b\)	.
.	.	.	.	32f#/LL	.	.	.
.	.	.	.	32g/JJJ)	.	.	.
=28	=28	=28	=28	=28	=28	=28	=28
4E\	.	(8.e\L	.	[2G/	.	(16cc\LL	.
.	.	.	.	.	.	16dd\	.
.	.	.	.	.	.	16cc\	.
.	.	16g\Jk)	.	.	.	16b\JJ	.
4r	.	(8.gT\L	.	.	.	16cc\LL	.
.	.	.	.	.	.	16dd\	.
.	.	.	.	.	.	16ee\	.
.	.	32f#\LL	.	.	.	16cc\JJ)	.
.	.	32g\JJJ)	.	.	.	.	.
4D\	.	(4.d\	.	16G/LL]	.	2b\	.
.	.	.	.	(16g/	.	.	.
.	.	.	.	16f#/	.	.	.
.	.	.	.	16g/JJ	.	.	.
4r	.	.	.	16a/LL	.	.	.
.	.	.	.	16g/	.	.	.
.	.	8B/)	.	16f#/	.	.	.
.	.	.	.	16g/JJ)	.	.	.
=29	=29	=29	=29	=29	=29	=29	=29
8C/L	.	8e\L	.	8g/L	.	4a/	.
8C/	.	8e\	.	8g/	.	.	.
8C/	.	8e\	.	8g/	.	2aa\	.
8C/J	.	8e\J	.	8g/J	.	.	.
8C/L	.	8e\L	.	8g\L	.	.	.
8C/	.	8e\	.	8g\	.	.	.
8C#/	.	8a\	.	8ee\	.	4gg\	.
8C#/J	.	8a\J	.	8ee\J	.	.	.
=30	=30	=30	=30	=30	=30	=30	=30
!	!	!	!	!	!	! 16ggP/	!
4D\	.	4a\	.	4dd\	.	8ff#p\L	.
.	.	.	.	.	.	16ee\L	.
.	.	.	.	.	.	16dd\JJ	.
4D\	.	4f#\	.	4a/	.	8dd\L	.
.	.	.	.	.	.	8dd\J	.
4D\	.	4A/	.	4f#/	.	4dd\	.
4r	.	4r	.	4r	.	4r	.
=31	=31	=31	=31	=31	=31	=31	=31
4r	.	4r	.	4r	.	8gg'\L	p
.	.	.	.	.	.	8gg'\J	.
(4D\	p	(4a\	p	(4cc\	p	8r	.
.	.	.	.	.	.	(16aa\LL	.
.	.	.	.	.	.	16ff#\JJ)	.
4GG/)	.	4g\)	.	4b\)	.	8gg'\L	.
.	.	.	.	.	.	8dd'\	.
4r	.	4r	.	4r	.	8gg'\	.
.	.	.	.	.	.	8bb'\J	.
=32	=32	=32	=32	=32	=32	=32	=32
4r	.	4r	.	4r	.	8gg'\L	.
.	.	.	.	.	.	8gg'\J	.
(4D\	.	(4a\	.	(4cc\	.	8r	.
.	.	.	.	.	.	(16aa\LL	.
.	.	.	.	.	.	16ff#\JJ)	.
4GG/)	.	4g\)	.	4b\)	.	8gg'\L	.
.	.	.	.	.	.	8dd'\	.
4r	.	4r	.	4r	.	8gg'\	.
.	.	.	.	.	.	8bb'\J	.
=33	=33	=33	=33	=33	=33	=33	=33
4G\	.	8B'/L	.	8g'/L	.	[1ddd\	.
.	.	8B'/J	.	8g'/J	.	.	.
4D\	.	8r	.	8r	.	.	.
.	.	(16c/LL	.	(16a/LL	.	.	.
.	.	16A/JJ)	.	16f#/JJ)	.	.	.
4GG/	.	8B'\L	.	8g'/L	.	.	.
.	.	8B'\	.	8d'/	.	.	.
4r	.	8d'\	.	8g'/	.	.	.
.	.	8f#'\J	.	8a'/J	.	.	.
=34	=34	=34	=34	=34	=34	=34	=34
4G\	.	8g'\L	.	8b'\L	.	1ddd\_	.
.	.	8g'\J	.	8b'\J	.	.	.
4D\	.	8r	.	8r	.	.	.
.	.	(16a\LL	.	(16cc\LL	.	.	.
.	.	16f#\JJ)	.	16a\JJ)	.	.	.
4GG/	.	8g'\L	.	8b'\L	.	.	.
.	.	8d'\	.	8g'\	.	.	.
4r	.	8b'\	.	8dd'\	.	.	.
.	.	8a'\J	.	8cc'\J	.	.	.
=35	=35	=35	=35	=35	=35	=35	=35
8E'\L	.	(4g#\	.	4b\	.	2ddd\]	.
8E'\J	.	.	.	.	.	.	.
8r	.	4b\)	.	2ee\	.	.	.
(16G#\LL	.	.	.	.	.	.	.
16E\JJ)	.	.	.	.	.	.	.
(8A\L	.	(8cc\L	.	.	.	[2ccc\	.
8Gn\	.	8b\	.	.	.	.	.
8F#\	.	8a\	.	[4a/	.	.	.
8E\J)	.	8gn\J)	.	.	.	.	.
=36	=36	=36	=36	=36	=36	=36	=36
8D'\L	.	(4f#\	.	4a/]	.	2ccc\]	.
8D'\J	.	.	.	.	.	.	.
8r	.	4a\)	.	2dd\	.	.	.
(16F#\LL	.	.	.	.	.	.	.
16D\JJ)	.	.	.	.	.	.	.
(8G\L	.	(8b\L	.	.	.	2bb\	.
8F#\	.	8a\	.	.	.	.	.
8E\	.	8g\	.	[4g/	.	.	.
8D\J)	.	8f#\J)	.	.	.	.	.
=37	=37	=37	=37	=37	=37	=37	=37
8Cn/L	.	8e\L	.	4.g/]	.	4.aa\	.
8C/	.	8e\	.	.	.	.	.
8C/	.	8e\	.	.	.	.	.
8C/J	.	8e\J	.	(16ee\LL	.	(16ccc\LL	.
.	.	.	.	16cc\JJ)	.	16aa\JJ)	.
8D\L	.	8d\L	.	4b\	.	4gg\	.
8D\	.	8d\	.	.	.	.	.
8D\	.	8c\	.	4a/	.	4ff#\	.
8D\J	.	8c\J	.	.	.	.	.
=38	=38	=38	=38	=38	=38	=38	=38
4G\	.	4B/	.	4g/	.	(8gg\L	.
.	.	.	.	.	.	8dd\)	.
4r	.	4r	.	4r	.	8dd'\	.
.	.	.	.	.	.	8dd'\J	.
2r	.	2r	.	2r	.	8dd\L	.
.	.	.	.	.	.	8dd\	.
.	.	.	.	.	.	8dd\	.
.	.	.	.	.	.	8dd\J	.
=39	=39	=39	=39	=39	=39	=39	=39
8E'\L	.	4B/	.	(4g#/	.	2dd\	.
8E'\J	.	.	.	.	.	.	.
8r	.	2e\	.	4b\)	.	.	.
(16G#\LL	.	.	.	.	.	.	.
16E\JJ)	.	.	.	.	.	.	.
(8A\L	.	.	.	(8cc/L	.	[2cc\	.
8Gn\	.	.	.	8b/	.	.	.
8F#\	.	[4A/	.	8a/	.	.	.
8E\J)	.	.	.	8gn/J)	.	.	.
=40	=40	=40	=40	=40	=40	=40	=40
8D'\L	.	4A/]	.	(4f#/	.	2cc\]	.
8D'\J	.	.	.	.	.	.	.
8r	.	2d\	.	4a/)	.	.	.
(16F#\LL	.	.	.	.	.	.	.
16D\JJ)	.	.	.	.	.	.	.
(8G\L	.	.	.	(8b/L	.	2b\	.
8F#\	.	.	.	8a/	.	.	.
8E\	.	[4G/	.	8g/	.	.	.
8D\J)	.	.	.	8f#/J)	.	.	.
=41	=41	=41	=41	=41	=41	=41	=41
8C/L	.	(4.G/]	.	(4.e/	.	(4.a/	.
8C/	.	.	.	.	.	.	.
8C/	.	.	.	.	.	.	.
8C/J	.	8E/)	.	8c/)	.	16cc\LL	.
.	.	.	.	.	.	16ee\JJ)	.
8D\L	.	2D/	.	(4B/	.	(4g/	.
8D\	.	.	.	.	.	.	.
8D\	.	.	.	4A/)	.	4f#/)	.
8D\J	.	.	.	.	.	.	.
=42	=42	=42	=42	=42	=42	=42	=42
4GG/	f	4D/	f	4B/	f	(8g/L	f
.	.	.	.	.	.	8b/J)	.
4r	.	4r	.	4r	.	8d'/L	p
.	.	.	.	.	.	8d'/J	.
4FF#/	.	4d\	.	4c/	.	(8a\L	f
.	.	.	.	.	.	8cc\J)	.
4r	.	4r	.	4r	.	8d'/L	p
.	.	.	.	.	.	8d'/J	.
=43	=43	=43	=43	=43	=43	=43	=43
4GG/	.	4d\	.	4B/	.	(8b\L	f
.	.	.	.	.	.	8dd\J)	.
4r	.	4r	.	4r	.	8d'/L	p
.	.	.	.	.	.	8d'/J	.
!	!	!	!	!	!	! 16ddP/	!
4C/	.	2A/	.	(4e/	.	8ccp\L	f
.	.	.	.	.	.	16b\L	.
.	.	.	.	.	.	16a\JJ	.
!	!	!	!	!	!	! 16bP/	!
4D\	.	.	.	4c/)	.	8ap/L	.
.	.	.	.	.	.	16g/L	.
.	.	.	.	.	.	16f#/JJ	.
=44	=44	=44	=44	=44	=44	=44	=44
4GG/	.	4G/	.	4B/	.	(8g/L	f
.	.	.	.	.	.	8b/J)	.
4r	.	4r	.	4r	.	8d'/L	p
.	.	.	.	.	.	8d'/J	.
4FF#/	.	4c\	.	4d/	.	(8a\L	f
.	.	.	.	.	.	8cc\J)	.
4r	.	4r	.	4r	.	8d'/L	p
.	.	.	.	.	.	8d'/J	.
=45	=45	=45	=45	=45	=45	=45	=45
4GG/	.	4B/	.	4d/	.	(8b\L	f
.	.	.	.	.	.	8dd\J)	.
4r	.	4r	.	4r	.	8d'/L	p
.	.	.	.	.	.	8d'/J	.
!	!	!	!	!	!	! 16ddP/	!
(4C/	.	2A/	.	(4e/	.	8ccp\L	f
.	.	.	.	.	.	16b\L	.
.	.	.	.	.	.	16a\JJ	.
!	!	!	!	!	!	! 16bP/	!
4D\)	.	.	.	4c/)	.	8ap/L	.
.	.	.	.	.	.	16g/L	.
.	.	.	.	.	.	16f#/JJ	.
=46	=46	=46	=46	=46	=46	=46	=46
4GG/	.	4G/	.	4B/	.	4g/	.
(4B\	p	(4d\	p	(4g/	p	(4gg\	p
4A\	.	4f#\	.	4a/	.	4aa\	.
4G\)	.	4g\)	.	4b/)	.	4bb\)	.
=47	=47	=47	=47	=47	=47	=47	=47
(4F#\	f	(4e\	f	(4cc\	f	(4ccc\	f
4G\)	.	4d\)	.	4b\)	.	4bb\)	.
4D\	p	(8c\L	p	(8a/L	p	(8aa\L	p
.	.	8B\	.	8g/	.	8gg\	.
4D\	.	8c\	.	8a/	.	8aa\	.
.	.	8d\J)	.	8b/J)	.	8bb\J)	.
=48	=48	=48	=48	=48	=48	=48	=48
4GG/	.	4B/	.	4g/	.	4gg\	.
(4B\	p	(4B/	p	(4d/	p	(4g/	p
4A\	.	4c\	.	4f#/	.	4a/	.
4G\)	.	4d\)	.	4g/)	.	4b/)	.
=49	=49	=49	=49	=49	=49	=49	=49
(4F#\	f	2d\	f	(4a/	f	(4cc\	f
4G\)	.	.	.	4g/)	.	4b\)	.
4D\	p	(2F#/	p	(8c/L	p	(8a/L	p
.	.	.	.	8B/	.	8g/	.
4D\	.	.	.	8c/	.	8a/	.
.	.	.	.	8d/J)	.	8b/J)	.
=50	=50	=50	=50	=50	=50	=50	=50
[1GG/	.	2G/)	.	2B/	.	2g/	.
.	.	(2f#\	.	(8c/L	.	(8a/L	.
.	.	.	.	8B/	.	8g/	.
.	.	.	.	8c/	.	8a/	.
.	.	.	.	8d/J)	.	8b/J)	.
=51	=51	=51	=51	=51	=51	=51	=51
1GG/_	.	2g\)	.	2B/	.	2g/	.
.	.	(2F#/	.	(8c/L	.	(8a/L	.
.	.	.	.	8B/	.	8g/	.
.	.	.	.	8c/	.	8a/	.
.	.	.	.	8d/J)	.	8b/J)	.
=52	=52	=52	=52	=52	=52	=52	=52
4GG/]	.	4G/)	.	4B/	.	4g/	.
4G\	f	4d\	f	4b/ 4d/	f	4gg/ 4b/ 4d/	f
4GG/	.	4d/ 4G/	.	4b/ 4d/ 4G/	.	4gg/ 4b/ 4d/ 4G/	.
4r	.	4r	.	4r	.	4r	.
=53:!!:	=53:!!:	=53:!!:	=53:!!:	=53:!!:	=53:!!:	=53:!!:	=53:!!:
*>B	*	*>B	*	*>B	*	*>B	*
4G\	.	4B/	.	4d/	.	(8g/L	f
.	.	.	.	.	.	8b/J)	.
4r	.	4r	.	4r	.	8d'/L	p
.	.	.	.	.	.	8d'/J	.
4G\	.	4d\	.	4g/	.	(8b\L	f
.	.	.	.	.	.	8dd\J)	.
4r	.	4r	.	4r	.	8g'/L	p
.	.	.	.	.	.	8g'/J	.
=54	=54	=54	=54	=54	=54	=54	=54
4G\	.	4g\	.	4b\	.	(8dd\L	f
.	.	.	.	.	.	8gg\J)	.
4r	.	4r	.	4r	.	8b'\L	p
.	.	.	.	.	.	8b'\J	.
!	!	!	!	!	!	! 16aaP/	!
2r	.	2r	.	2r	.	8ggp\L	f
.	.	.	.	.	.	16ffn\L	.
.	.	.	.	.	.	16ee\JJ	.
!	!	!	!	!	!	! 16eeP/	!
.	.	.	.	.	.	8ddp\L	.
.	.	.	.	.	.	16cc\L	.
.	.	.	.	.	.	16b\JJ	.
=55	=55	=55	=55	=55	=55	=55	=55
4G\	.	4c\	.	4e/	.	(8cc\L	f
.	.	.	.	.	.	8ee\J)	.
4r	.	4r	.	4r	.	8g'/L	p
.	.	.	.	.	.	8g'/J	.
4G\	.	4e\	.	4g/	.	(8ee\L	f
.	.	.	.	.	.	8gg\J)	.
4r	.	4r	.	4r	.	8cc'\L	p
.	.	.	.	.	.	8cc'\J	.
=56	=56	=56	=56	=56	=56	=56	=56
4G\	.	4e\	.	4cc\	.	(8gg\L	f
.	.	.	.	.	.	8ccc\J)	.
4r	.	4r	.	4r	.	8ee'\L	p
.	.	.	.	.	.	8ee'\J	.
!	!	!	!	!	!	! 16aaP/	!
2r	.	2r	.	2r	.	8ggp\L	f
.	.	.	.	.	.	16ff\L	.
.	.	.	.	.	.	16ee\JJ	.
!	!	!	!	!	!	! 16ffP/	!
.	.	.	.	.	.	8eep\L	.
.	.	.	.	.	.	16dd\L	.
.	.	.	.	.	.	16cc\JJ	.
=57	=57	=57	=57	=57	=57	=57	=57
4G\	.	4d\	.	4f/	.	(8b\L	f
.	.	.	.	.	.	8dd\J)	.
4r	.	4r	.	4r	.	8g'/L	p
.	.	.	.	.	.	8g'/J	.
4G\	.	4B/	.	4d/	.	(8dd\L	f
.	.	.	.	.	.	8ff\J)	.
4r	.	4r	.	4r	.	8b'\L	p
.	.	.	.	.	.	8b'\J	.
=58	=58	=58	=58	=58	=58	=58	=58
4G#\	.	4B/	.	4dd\	.	(8ff\L	f
.	.	.	.	.	.	8bb\J)	.
4r	.	4r	.	4r	.	8dd'\L	p
.	.	.	.	.	.	8dd'\J	.
!	!	!	!	!	!	! 16ggP/	!
2r	.	2r	.	2r	.	8ffp\L	f
.	.	.	.	.	.	16ee\L	.
.	.	.	.	.	.	16dd\JJ	.
!	!	!	!	!	!	! 16eeP/	!
.	.	.	.	.	.	8ddp\L	.
.	.	.	.	.	.	16cc\L	.
.	.	.	.	.	.	16b\JJ	.
=59	=59	=59	=59	=59	=59	=59	=59
4A\	.	4a\	.	4cc\	.	(8ee\L	f
.	.	.	.	.	.	8aa\J)	.
4r	.	4r	.	4r	.	8cc'\L	p
.	.	.	.	.	.	8cc'\J	.
!	!	!	!	!	!	! 16ffP/	!
4AA/	.	4c\	.	4a/	.	8eep\L	f
.	.	.	.	.	.	16dd\L	.
.	.	.	.	.	.	16cc\JJ	.
!	!	!	!	!	!	! 16ddP/	!
4AA/	.	4c\	.	4e/	.	8ccp\L	.
.	.	.	.	.	.	16b\L	.
.	.	.	.	.	.	16a\JJ	.
=60	=60	=60	=60	=60	=60	=60	=60
4E\	.	4B/	.	4e/	.	4g#/	.
4EE/	.	4E/	.	4g#/ 4B/	.	4ee\ 4b\ 4g#\	.
4EE/	.	4E/	.	4g#/ 4B/	.	4ee\ 4b\ 4g#\	.
4r	.	4r	.	4r	.	4r	.
=61	=61	=61	=61	=61	=61	=61	=61
4r	.	4r	.	4r	.	8a'/L	p
.	.	.	.	.	.	8a'/J	.
(4E\	p	(4B/	p	(4d/	p	8r	.
.	.	.	.	.	.	(16b/LL	.
.	.	.	.	.	.	16g#/JJ)	.
4AA/)	.	4A/)	.	4c/)	.	8a'/L	.
.	.	.	.	.	.	8e'/	.
4r	.	4r	.	4r	.	8a'/	.
.	.	.	.	.	.	8cc'/J	.
=62	=62	=62	=62	=62	=62	=62	=62
4r	.	4r	.	4r	.	8a'/L	.
.	.	.	.	.	.	8a'/J	.
(4E\	.	(4B/	.	(4d/	.	8r	.
.	.	.	.	.	.	(16b/LL	.
.	.	.	.	.	.	16g#/JJ)	.
4AA/)	.	4A/)	.	4c/)	.	8a'\L	.
.	.	.	.	.	.	8a'\	.
4r	.	4r	.	4r	.	8cc'\	.
.	.	.	.	.	.	8ee'\J	.
=63	=63	=63	=63	=63	=63	=63	=63
4r	.	8c#'\L	.	8e'/L	.	[1aa\	.
.	.	8c#'\J	.	8e'/J	.	.	.
4A\	.	8r	.	8r	.	.	.
.	.	(16e\LL	.	(16g/LL	.	.	.
.	.	16c#\JJ)	.	16e/JJ)	.	.	.
4F\	.	8d'\L	.	8f'/L	.	.	.
.	.	8d'\J	.	8f'/J	.	.	.
4D\	.	8r	.	8r	.	.	.
.	.	(16a\LL	.	(16ff\LL	.	.	.
.	.	16f\JJ)	.	16dd\JJ)	.	.	.
=64	=64	=64	=64	=64	=64	=64	=64
4AA/	.	8e'\L	.	8cc#'/L	.	1aa\]	.
.	.	8g'\	.	8ee'/	.	.	.
4A\	.	8c#'\	.	8e'/	.	.	.
.	.	8e'\J	.	8g'/J	.	.	.
4D\	.	8d'\L	.	8f'/L	.	.	.
.	.	8e'\	.	8g'/	.	.	.
4F\	.	8d'\	.	8f'/	.	.	.
.	.	8cn'\J	.	8e'/J	.	.	.
=65	=65	=65	=65	=65	=65	=65	=65
4GG/	.	8B'/L	.	8d'/L	.	[1gg\	.
.	.	8B'/J	.	8d'/J	.	.	.
4G\	.	8r	.	8r	.	.	.
.	.	(16d\LL	.	(16f/LL	.	.	.
.	.	16B\JJ)	.	16d/JJ)	.	.	.
4E\	.	8c'\L	.	8e'/L	.	.	.
.	.	8c'\J	.	8e'/J	.	.	.
4C/	.	8r	.	8r	.	.	.
.	.	(16g\LL	.	(16ee\LL	.	.	.
.	.	16e\JJ)	.	16cc\JJ)	.	.	.
=66	=66	=66	=66	=66	=66	=66	=66
4GG/	.	8d'\L	.	8b'/L	.	1gg\_	.
.	.	8f'\	.	8dd'/	.	.	.
4G\	.	8B'\	.	8d'/	.	.	.
.	.	8d'\J	.	8f'/J	.	.	.
4C/	.	8c'\L	.	8e'/L	.	.	.
.	.	8e'\	.	8g'/	.	.	.
4E\	.	8g'\	.	8cc'/	.	.	.
.	.	8e'\J	.	8g'/J	.	.	.
=67	=67	=67	=67	=67	=67	=67	=67
8A'\L	.	8c#'\L	.	4e/	.	2gg\]	.
8A'\J	.	8c#'\J	.	.	.	.	.
8r	.	8r	.	2a/	.	.	.
(16c#\LL	.	(16e\LL	.	.	.	.	.
16A\JJ)	.	16c#\JJ)	.	.	.	.	.
(8d\L	.	(8f\L	.	.	.	[2ff\	.
8cn\	.	8e\	.	.	.	.	.
8B\	.	8d\	.	[4d/	.	.	.
8A\J)	.	8cn\J)	.	.	.	.	.
=68	=68	=68	=68	=68	=68	=68	=68
8G'\L	.	8B'/L	.	4d/]	.	2ff\]	.
8G'\J	.	8B'/J	.	.	.	.	.
8r	.	8r	.	2g/	.	.	.
(16B\LL	.	(16d\LL	.	.	.	.	.
16G\JJ)	.	16B\JJ)	.	.	.	.	.
(8c\L	.	(8e\L	.	.	.	2ee\	.
8B\	.	8d\	.	.	.	.	.
8A\	.	8c\	.	4c/	.	.	.
8G\J)	.	8B\J)	.	.	.	.	.
=69	=69	=69	=69	=69	=69	=69	=69
8F#\L	f	8A/L	f	(2c/	f	(2ee-\	f
8F#\	.	8A/	.	.	.	.	.
8F#\	.	8A/	.	.	.	.	.
8F#\J	.	8A/J	.	.	.	.	.
8F#\L	.	8A/L	.	4d/	.	4dd\	.
8F#\	.	8A/	.	.	.	.	.
8F#\	.	8A/	.	4e-/)	.	4cc\)	.
8F#\J	.	8A/J	.	.	.	.	.
=70	=70	=70	=70	=70	=70	=70	=70
8G\L	.	4B/	.	4d/	.	(16b\LL	.
.	.	.	.	.	.	16gg\)	.
8G\	.	.	.	.	.	16gg'\	.
.	.	.	.	.	.	16gg'\JJ	.
8G\	.	8r	.	(8b\L	.	(16gg\LL	.
.	.	.	.	.	.	16dd\)	.
8G\J	.	8g\	.	8cc\J)	.	(16een\	.
.	.	.	.	.	.	16cc\JJ)	.
8G\L	.	8g\L	.	4b\	.	(16dd\LL	.
.	.	.	.	.	.	16gg\)	.
8G\	.	8G\J	.	.	.	16gg'\	.
.	.	.	.	.	.	16gg'\JJ	.
8G\	.	8r	.	(8B/L	.	(16gg\LL	.
.	.	.	.	.	.	16dd\)	.
8G\J	.	8G/	.	8c/J)	.	(16ee\	.
.	.	.	.	.	.	16cc\JJ)	.
=71	=71	=71	=71	=71	=71	=71	=71
8G\L	fp	4G/	.	16B'/LL	.	8b'\	.
.	.	.	.	16g'/	p	.	.
8G\	.	.	.	16g'/	.	(8dd\L	p
.	.	.	.	16g'/JJ	.	.	.
8G\	.	8r	.	(16g/LL	.	8gg\	.
.	.	.	.	16b/)	.	.	.
8G\J	.	(8d\	p	(16b/	.	8bb\J)	.
.	.	.	.	16g/JJ)	.	.	.
8A\L	.	4c\)	.	(16g/LL	p	8r	.
.	.	.	.	16f/)	.	.	.
8A\	.	.	.	16f'/	.	(8ccc\L	p
.	.	.	.	16f'/JJ	.	.	.
8A\	.	8r	.	(16f/LL	.	8aa\	.
.	.	.	.	16a/)	.	.	.
8A\J	.	(8a\	.	(16a/	.	8ff\J)	.
.	.	.	.	16cc/JJ)	.	.	.
=72	=72	=72	=72	=72	=72	=72	=72
8G\L	.	4g\)	.	(16cc\LL	.	8r	.
.	.	.	.	16b\)	.	.	.
8G\	.	.	.	16b'\	.	(8ee\L	.
.	.	.	.	16b'\JJ	.	.	.
8G\	.	8r	.	(16b/LL	.	8gg\	.
.	.	.	.	16g/)	.	.	.
8G\J	.	(8B/	.	(16g/	.	8bb\J)	.
.	.	.	.	16e/JJ)	.	.	.
8Fn\L	.	4A/)	.	(16e/LL	.	8r	.
.	.	.	.	16d/)	.	.	.
8F\	.	.	.	16d'/	.	(8aa\L	.
.	.	.	.	16d'/JJ	.	.	.
8F\	.	8r	.	(16d/LL	.	8ff\	.
.	.	.	.	16f/)	.	.	.
8F\J	.	(8B/	.	(16f/	.	8dd\J)	.
.	.	.	.	16a/JJ)	.	.	.
=73	=73	=73	=73	=73	=73	=73	=73
8E\L	.	4c\)	.	(16a/LL	.	8r	.
.	.	.	.	16g/)	.	.	.
8E\	.	.	.	16g'/	.	(8cc\L	.
.	.	.	.	16g'/JJ	.	.	.
8E\	.	4r	.	(16g/LL	.	8ee\	.
.	.	.	.	16e/)	.	.	.
8E\J	.	.	.	(16e/	.	8gg\J)	.
.	.	.	.	16c/JJ)	.	.	.
(8D/L	f	4g\ 4G\	f	(8B/L	f	(16ff\LL	f
.	.	.	.	.	.	16gg\	.
8C/	.	.	.	8c/	.	16ee\	.
.	.	.	.	.	.	16gg\JJ	.
8D/	.	4g\ 4G\	.	8B/	.	16ff\LL	.
.	.	.	.	.	.	16gg\	.
8C/J)	.	.	.	8c/J)	.	16ee\	.
.	.	.	.	.	.	16gg\JJ)	.
=74	=74	=74	=74	=74	=74	=74	=74
4D\	.	4g\ 4G\	.	4B/	.	(8ff\L	.
.	.	.	.	.	.	8dd\	.
4r	.	4r	.	4r	.	8b\	.
.	.	.	.	.	.	8g\J)	.
2r	.	2r	.	2r	.	(8f#/L	.
.	.	.	.	.	.	8fn/	.
.	.	.	.	.	.	8d/	.
.	.	.	.	.	.	8B/J)	.
=75	=75	=75	=75	=75	=75	=75	=75
8C/L	p	[1G/	p	(4.c/	p	(4.c/	p
8C/	.	.	.	.	.	.	.
8C/	.	.	.	.	.	.	.
8C/J	.	.	.	8B/	.	8d/	.
8C/L	.	.	.	4c/)	.	4e/)	.
8C/	.	.	.	.	.	.	.
8C/	.	.	.	4c'/	.	4e'/	.
8C/J	.	.	.	.	.	.	.
=76	=76	=76	=76	=76	=76	=76	=76
8GG/L	.	2G/_	.	(8c/L	.	(8e/L	.
8GG/	.	.	.	8B/	.	8d/	.
8GG/	.	.	.	8d/	.	8f/	.
8GG/J	.	.	.	8c/J	.	8e/J	.
4GG/	.	(8G/L]	.	4B/)	.	4d/)	.
.	.	8B/	.	.	.	.	.
4r	.	8d/	.	4r	.	4r	.
.	.	8B/J)	.	.	.	.	.
=77	=77	=77	=77	=77	=77	=77	=77
8GG/L	.	[1G/	.	(4.B/	.	(4.d/	.
8GG/	.	.	.	.	.	.	.
8GG/	.	.	.	.	.	.	.
8GG/J	.	.	.	8c/	.	8e/	.
8GG/L	.	.	.	4d/)	.	4f/)	.
8GG/	.	.	.	.	.	.	.
8GG/	.	.	.	4d'/	.	4f'/	.
8GG/J	.	.	.	.	.	.	.
=78	=78	=78	=78	=78	=78	=78	=78
8C/L	.	2G/_	.	(8d/L	.	(8f/L	.
8C/	.	.	.	8c/	.	8e/	.
8C/	.	.	.	8e/	.	8g/	.
8C/J	.	.	.	8d/J	.	8f/J	.
4C/	.	8G\L]	.	4c/)	.	4e/)	.
.	.	(8e\	.	.	.	.	.
4r	.	8g\	.	4r	.	4r	.
.	.	8e\J)	.	.	.	.	.
=79	=79	=79	=79	=79	=79	=79	=79
8F#\L	.	(2c\	.	(2.d/	.	(4.a/	.
8F#\	.	.	.	.	.	.	.
8F#\	.	.	.	.	.	.	.
8F#\J	.	.	.	.	.	8b\	.
8F#\L	.	4A/)	.	.	.	4cc\)	.
8F#\	.	.	.	.	.	.	.
8F#\	.	4d'\	.	4a/)	.	4cc'\	.
8F#\J	.	.	.	.	.	.	.
=80	=80	=80	=80	=80	=80	=80	=80
8G\L	.	2G/	.	(4a/	.	(4cc\	.
8G\	.	.	.	.	.	.	.
8G\	.	.	.	4g/)	.	4b\)	.
8G\J	.	.	.	.	.	.	.
8G\L	.	2r	.	4f'/	.	4a'/	.
8G\	.	.	.	.	.	.	.
8G\	.	.	.	4e'/	.	4g'/	.
8G\J	.	.	.	.	.	.	.
=81	=81	=81	=81	=81	=81	=81	=81
8GG/L	.	2G/	.	(4e/	.	(4g/	.
8GG/	.	.	.	.	.	.	.
8GG/	.	.	.	4d/)	.	4f/)	.
8GG/J	.	.	.	.	.	.	.
8GG/L	.	2r	.	4c'/	.	4e'/	.
8GG/	.	.	.	.	.	.	.
8GG/	.	.	.	4B'/	.	4d'/	.
8GG/J	.	.	.	.	.	.	.
=82	=82	=82	=82	=82	=82	=82	=82
8C/	.	8r	.	4c/	.	4c'/	.
8C'\L	f	8E'/L	f	.	.	.	.
8D'\	.	8F'/	.	4r	.	4r	.
8E'\J	.	8G'/J	.	.	.	.	.
8Fn'\L	.	8A'/L	.	2r	.	2r	.
8G'\	.	8B'/	.	.	.	.	.
8A'\	.	8c'/	.	.	.	.	.
8B'\J	.	8d'/J	.	.	.	.	.
=83	=83	=83	=83	=83	=83	=83	=83
4c\	.	8e\	.	(4.cc\	f	(4.cc\	f
.	.	4g\	.	.	.	.	.
4G\	.	.	.	.	.	.	.
.	.	4g\	.	8b\	.	8dd\	.
4E\	.	.	.	4cc\)	.	4ee\)	.
.	.	4g\	.	.	.	.	.
4C/	.	.	.	4cc'\	.	4ee'\	.
.	.	[8g\	.	.	.	.	.
=84	=84	=84	=84	=84	=84	=84	=84
4G\	.	8g\]	.	(8cc\L	.	(8ee\L	.
.	.	4g\	.	8b\	.	8dd\	.
4GG/	.	.	.	8dd\	.	8ff\	.
.	.	4g\	.	8cc\J	.	8ee\J	.
2r	.	.	.	4b\)	.	4dd\)	.
.	.	(8g\L	.	.	.	.	.
.	.	8f#\	.	4r	.	4r	.
.	.	8g\J)	.	.	.	.	.
=85	=85	=85	=85	=85	=85	=85	=85
4G\	.	8G/	.	(4.b\	.	(4.dd\	.
.	.	4g\	.	.	.	.	.
4D\	.	.	.	.	.	.	.
.	.	4g\	.	8cc\	.	8ee\	.
4BB/	.	.	.	4dd\)	.	4ff\)	.
.	.	4g\	.	.	.	.	.
4GG/	.	.	.	4dd'\	.	4ff'\	.
.	.	[8g\	.	.	.	.	.
=86	=86	=86	=86	=86	=86	=86	=86
4C/	.	8g\]	.	(8dd\L	.	(8ff\L	.
.	.	4g\	.	8cc\	.	8ee\	.
4c\	.	.	.	8ee\	.	8gg\	.
.	.	4g\	.	8dd\J	.	8ff\J	.
2r	.	.	.	4cc\)	.	4ee\)	.
.	.	(8cc\L	.	.	.	.	.
.	.	8b\	.	4r	.	4r	.
.	.	8cc\J)	.	.	.	.	.
=87	=87	=87	=87	=87	=87	=87	=87
8r	.	4c\	.	4.ee\	.	4.gg\	.
(8c\L	.	.	.	.	.	.	.
8B\	.	4r	.	.	.	.	.
8c\J)	.	.	.	16cc\LL	.	16ee\LL	.
.	.	.	.	16dd\JJ	.	16ff\JJ	.
4C/	.	8r	.	8ee\L	.	8gg\L	.
.	.	(8c\L	.	16ff\L	.	16aa\L	.
.	.	.	.	16gg\JJ	.	16bb\JJ	.
!	!	!	!	! 16bbP/	!	! 16dddP/	!
4r	.	8B\	.	8aap\L	.	8cccp\L	.
.	.	8c\J)	.	16gg\L	.	16bb\L	.
.	.	.	.	16ff\JJ	.	16aa\JJ	.
=88	=88	=88	=88	=88	=88	=88	=88
8r	.	4C/	.	4.ee\	.	4.gg\	.
(8C/L	.	.	.	.	.	.	.
8BB/	.	4r	.	.	.	.	.
8C/J)	.	.	.	16cc\LL	.	16ee\LL	.
.	.	.	.	16dd\JJ	.	16ff\JJ	.
4CC/	.	8r	.	8ee\L	.	8gg\L	.
.	.	(8cc\L	.	16ff\L	.	16aa\L	.
.	.	.	.	16gg\JJ	.	16bb\JJ	.
!	!	!	!	! 16bbP/	!	! 16dddP/	!
4r	.	8b\	.	8aap\L	.	8cccp\L	.
.	.	8cc\J)	.	16gg\L	.	16bb\L	.
.	.	.	.	16ff\JJ	.	16aa\JJ	.
=89	=89	=89	=89	=89	=89	=89	=89
!	!	!	!	! 16ffP/	!	! 16aaP/	!
4C/	.	8c\	.	8eep\L	.	8ggp\L	.
.	.	(8g\L	.	16dd\L	.	16ff\L	.
.	.	.	.	16cc\JJ	.	16ee\JJ	.
4r	.	8f\	.	8b\L	.	8dd\L	.
.	.	8e\J)	.	8cc\J	.	8ee\J	.
!	!	!	!	! 16eeP/	!	! 16ggP/	!
4G\	.	8r	.	8ddp\L	.	8ffp\L	.
.	.	(8f\L	.	16cc\L	.	16ee\L	.
.	.	.	.	16b\JJ	.	16dd\JJ	.
4r	.	8e\	.	8a/L	.	8cc\L	.
.	.	8d\J)	.	8b/J	.	8dd\J	.
=90	=90	=90	=90	=90	=90	=90	=90
(4c\	.	4c\	.	(8.cc/L	.	(8.ee\L	.
.	.	.	.	16e/Jk)	.	16cc\Jk)	.
4F\)	.	8r	.	(8.c/L	.	(8.a\L	.
.	.	8A/	.	.	.	.	.
.	.	.	.	16f/Jk)	.	16dd\Jk)	.
(4G\	.	2G/	.	4e/	.	4cc\	.
4GG/)	.	.	.	4d/	.	4b\	.
=91	=91	=91	=91	=91	=91	=91	=91
!	!	!	!	! 16fP/	!	! 16aaP/	!
4C/	.	8r	.	8ep/L	.	8ggp\L	.
.	.	(8G/L	.	16d/L	.	16ff\L	.
.	.	.	.	16c/JJ	.	16ee\JJ	.
4r	.	8F/	.	(16B/LL	.	(16dd\LL	.
.	.	.	.	16c/)	.	16ee\)	.
.	.	8E/J)	.	(16B/	.	(16dd\	.
.	.	.	.	16c/JJ)	.	16ee\JJ)	.
!	!	!	!	! 16eP/	!	! 16ggP/	!
4GG/	.	8r	.	8dp/L	.	8ffp\L	.
.	.	(8F/L	.	16c/L	.	16ee\L	.
.	.	.	.	16B/JJ	.	16dd\JJ	.
4r	.	8E/	.	(16A/LL	.	(16cc\LL	.
.	.	.	.	16B/)	.	16dd\)	.
.	.	8D/J)	.	(16A/	.	(16cc\	.
.	.	.	.	16B/JJ)	.	16dd\JJ)	.
=92	=92	=92	=92	=92	=92	=92	=92
(4C/	.	4C/	.	4c/	.	(16ee\LL	.
.	.	.	.	.	.	16dd\	.
.	.	.	.	.	.	16ee\)	.
.	.	.	.	.	.	16cc'\JJ	.
4FF/)	.	8r	.	(16c/LL	.	(16a\LL	.
.	.	.	.	16d/	.	16b\	.
.	.	8A/	.	16e/	.	16cc\	.
.	.	.	.	16f/JJ)	.	16dd\JJ)	.
(4GG/	.	2G/	.	(4e/	.	(4cc\	.
4F\)	.	.	.	4d/)	.	4b\)	.
=93	=93	=93	=93	=93	=93	=93	=93
8E\L	.	8G/L	.	(4.c/	.	(4.cc\	.
8E\	.	8G/	.	.	.	.	.
8C\	.	8E/	.	.	.	.	.
8C\J	.	8E/J	.	16d/LL	.	16dd\LL	.
.	.	.	.	16e/JJ)	.	16ee\JJ)	.
(8A\L	.	(8c\L	.	(8f/L	.	(8ff\L	.
8G\	.	8e\	.	8g/	.	8gg\	.
8F\)	.	8f\)	.	8a/)	.	8aa\	.
8D'\J	.	8a'\J	.	8dd'/J	.	8ff\J)	.
=94	=94	=94	=94	=94	=94	=94	=94
8G\L	.	8g\L	.	(2cc\	.	(2ee\	.
8G\	.	8g\	.	.	.	.	.
8G\	.	8g\	.	.	.	.	.
8G\J	.	8g\J	.	.	.	.	.
4GG/	.	8G\L	.	4b\)	.	4dd\)	.
.	.	8f\	.	.	.	.	.
4r	.	8e\	.	4r	.	4r	.
.	.	8d\J	.	.	.	.	.
=95	=95	=95	=95	=95	=95	=95	=95
8G\L	.	8c#\L	.	1r	.	2bb-\	.
8G\	.	8c#\	.	.	.	.	.
8G\	.	8c#\	.	.	.	.	.
8G\J	.	8c#\J	.	.	.	.	.
!	!	!	!	!	!	! 16aaP/	!
8G\L	.	8b-\L	.	.	.	4ggp\	.
8G\	.	8b-\	.	.	.	.	.
!	!	!	!	!	!	! 16ffP/	!
8G\	.	8b-\	.	.	.	4eep\	.
8G\J	.	8b-\J	.	.	.	.	.
=96	=96	=96	=96	=96	=96	=96	=96
8F\L	.	8a\L	.	2aa\	.	(8ee\L	.
8F\	.	8a\	.	.	.	8ff\	.
8F\	.	8a\	.	.	.	8cc#\	.
8F\J	.	8a\J	.	.	.	8dd\J)	.
!	!	!	!	! 16ggP/	!	!	!
8F\L	.	8A/L	.	4ffp\	.	4d/	.
8F\	.	8A/	.	.	.	.	.
!	!	!	!	! 16eeP/	!	!	!
8F\	.	8A/	.	4ddp\	.	4r	.
8F\J	.	8A/J	.	.	.	.	.
=97	=97	=97	=97	=97	=97	=97	=97
8F\L	.	8d\L	.	(8cc\L	.	2aa\	.
8F\	.	8d\	.	8b\	.	.	.
8F\	.	8d\	.	8dd\	.	.	.
8F\J	.	8d\J	.	8cc\J)	.	.	.
!	!	!	!	!	!	! 16ggP/	!
8F\L	.	8bn\L	.	4b\	.	4ffp\	.
8F\	.	8b\	.	.	.	.	.
!	!	!	!	!	!	! 16eeP/	!
8F\	.	8b\	.	4r	.	4ddp\	.
8F\J	.	8b\J	.	.	.	.	.
=98	=98	=98	=98	=98	=98	=98	=98
8E\L	.	8g\L	.	2gg\	.	(8dd\L	.
8E\	.	8g\	.	.	.	8ee\	.
8E\	.	8g\	.	.	.	8b\	.
8E\J	.	8g\J	.	.	.	8cc\J)	.
!	!	!	!	! 16ffP/	!	!	!
8E\L	.	8g\L	.	4eep\	.	4c/	.
8E\	.	8g\	.	.	.	.	.
!	!	!	!	! 16ddP/	!	!	!
8E\	.	8g\	.	4ccp\	.	4r	.
8E\J	.	8g\J	.	.	.	.	.
=99	=99	=99	=99	=99	=99	=99	=99
4F\	.	(16f\LL	.	4cc\	.	(8.aa\L	.
.	.	16g\	.	.	.	.	.
.	.	16f\	.	.	.	.	.
.	.	16e\JJ	.	.	.	16ccc\Jk)	.
4r	.	16f\LL	.	4r	.	(8.cccT\L	.
.	.	16g\	.	.	.	.	.
.	.	16a\	.	.	.	.	.
.	.	16f\JJ)	.	.	.	32bb\LL	.
.	.	.	.	.	.	32ccc\JJJ)	.
4E\	.	2e\	.	8.c/L	.	(4.gg\	.
.	.	.	.	16cc/Jk	.	.	.
4r	.	.	.	(8.ccT\L	.	.	.
.	.	.	.	.	.	8ee\)	.
.	.	.	.	32b\LL	.	.	.
.	.	.	.	32cc\JJJ)	.	.	.
=100	=100	=100	=100	=100	=100	=100	=100
4A\	.	(8.a\L	.	[2c/	.	(16ff\LL	.
.	.	.	.	.	.	16gg\	.
.	.	.	.	.	.	16ff\	.
.	.	16cc\Jk)	.	.	.	16ee\JJ	.
4r	.	(8.ccT\L	.	.	.	16ff\LL	.
.	.	.	.	.	.	16gg\	.
.	.	.	.	.	.	16aa\	.
.	.	32b\LL	.	.	.	16ff\JJ)	.
.	.	32cc\JJJ)	.	.	.	.	.
4G\	.	(4.g\	.	16c/LL]	.	2ee\	.
.	.	.	.	(16cc/	.	.	.
.	.	.	.	16b/	.	.	.
.	.	.	.	16cc/JJ	.	.	.
4r	.	.	.	16dd\LL	.	.	.
.	.	.	.	16cc\	.	.	.
.	.	8e\)	.	16b\	.	.	.
.	.	.	.	16cc\JJ)	.	.	.
=101	=101	=101	=101	=101	=101	=101	=101
4F\	.	(16f\LL	.	4c/	.	(8.a\L	.
.	.	16g\	.	.	.	.	.
.	.	16f\	.	.	.	.	.
.	.	16e\JJ	.	.	.	16cc\Jk)	.
4r	.	16f\LL	.	4r	.	(8.ccT\L	.
.	.	16g\	.	.	.	.	.
.	.	16a\	.	.	.	.	.
.	.	16f\JJ)	.	.	.	32b\LL	.
.	.	.	.	.	.	32cc\JJJ)	.
4E\	.	(4e\	.	8.c/L	.	(4.g/	.
.	.	.	.	16cc/Jk	.	.	.
4r	.	4G/)	.	(8.ccT\L	.	.	.
.	.	.	.	.	.	8e/)	.
.	.	.	.	32b\LL	.	.	.
.	.	.	.	32cc\JJJ)	.	.	.
=102	=102	=102	=102	=102	=102	=102	=102
4A\	.	(8.A/L	.	[2c/	.	(16f/LL	.
.	.	.	.	.	.	16g/	.
.	.	.	.	.	.	16f/	.
.	.	16c/Jk)	.	.	.	16e/JJ	.
4r	.	(8.cT/L	.	.	.	16f/LL	.
.	.	.	.	.	.	16g/	.
.	.	.	.	.	.	16a/	.
.	.	32B/LL	.	.	.	16f/JJ)	.
.	.	32c/JJJ)	.	.	.	.	.
4G\	.	(4.G/	.	16c/LL]	.	2e/	.
.	.	.	.	(16cc/	.	.	.
.	.	.	.	16b/	.	.	.
.	.	.	.	16cc/JJ	.	.	.
4r	.	.	.	16dd\LL	.	.	.
.	.	.	.	16cc\	.	.	.
.	.	8e\)	.	16b\	.	.	.
.	.	.	.	16cc\JJ)	.	.	.
=103	=103	=103	=103	=103	=103	=103	=103
8F\L	.	8A/L	.	8c/L	.	4d/	.
8F\	.	8A/	.	8c/	.	.	.
8F\	.	8A/	.	8c/	.	2dd\	.
8F\J	.	8A/J	.	8c/J	.	.	.
8F\L	.	8A/L	.	8c/L	.	.	.
8F\	.	8A/	.	8c/	.	.	.
8F#\	.	8d/	.	8a/	.	4cc\	.
8F#\J	.	8d/J	.	8a/J	.	.	.
=104	=104	=104	=104	=104	=104	=104	=104
!	!	!	!	! 16eP/	!	! 16ccP/	!
4G\	.	4d\	.	8dp/L	.	8bp/L	.
.	.	.	.	16c/L	.	16a/L	.
.	.	.	.	16B/JJ	.	16g/JJ	.
4GG/	.	4d\	.	8B/L	.	8g/L	.
.	.	.	.	8B/J	.	8g/J	.
4GG/	.	4d/ 4G/	.	4B/	.	4g/	.
4r	.	4r	.	4r	.	4r	.
=105	=105	=105	=105	=105	=105	=105	=105
4r	.	4r	.	4r	.	8cc'\L	p
.	.	.	.	.	.	8cc'\J	.
(4G\	p	(4d\	p	(4f/	p	8r	.
.	.	.	.	.	.	(16dd\LL	.
.	.	.	.	.	.	16b\JJ)	.
4C/)	.	4c\)	.	4e/)	.	8cc'\L	.
.	.	.	.	.	.	8g'\	.
4r	.	4r	.	4r	.	8cc'\	.
.	.	.	.	.	.	8ee'\J	.
=106	=106	=106	=106	=106	=106	=106	=106
4r	.	4r	.	4r	.	8cc'\L	.
.	.	.	.	.	.	8cc'\J	.
(4G\	.	(4d\	.	(4f/	.	8r	.
.	.	.	.	.	.	(16dd\LL	.
.	.	.	.	.	.	16b\JJ)	.
4C/)	.	4c\)	.	4e/)	.	8cc'\L	.
.	.	.	.	.	.	8g'\	.
4r	.	4r	.	4r	.	8cc'\	.
.	.	.	.	.	.	8ee'\J	.
=107	=107	=107	=107	=107	=107	=107	=107
4C/	.	8E'/L	.	8c'/L	.	[1gg\	.
.	.	8E'/J	.	8c'/J	.	.	.
4GG/	.	8r	.	8r	.	.	.
.	.	(16F/LL	.	(16d/LL	.	.	.
.	.	16D/JJ)	.	16B/JJ)	.	.	.
4CC/	.	4E/	.	8c'/L	.	.	.
.	.	.	.	8G'/	.	.	.
4r	.	8G'/L	.	8c'/	.	.	.
.	.	8B'/J	.	8d'/J	.	.	.
=108	=108	=108	=108	=108	=108	=108	=108
4CC/	.	8c'\L	.	8e'/L	.	1gg\_	.
.	.	8c'\J	.	8e'/J	.	.	.
4GG/	.	8r	.	8r	.	.	.
.	.	(16d\LL	.	(16f/LL	.	.	.
.	.	16B\JJ)	.	16d/JJ)	.	.	.
4C/	.	8c'/L	.	8e'/L	.	.	.
.	.	8G'/	.	8c'/	.	.	.
4r	.	8e'/	.	8g'/	.	.	.
.	.	8d'/J	.	8f'/J	.	.	.
=109	=109	=109	=109	=109	=109	=109	=109
8A'\L	.	(4c#\	.	4e/	.	2gg\]	.
8A'\J	.	.	.	.	.	.	.
8r	.	4e\)	.	2a/	.	.	.
(16c#\LL	.	.	.	.	.	.	.
16A\JJ)	.	.	.	.	.	.	.
(8d\L	.	(8f\L	.	.	.	[2ff\	.
8cn\	.	8e\	.	.	.	.	.
8B\	.	8d\	.	[4d/	.	.	.
8A\J)	.	8cn\J)	.	.	.	.	.
=110	=110	=110	=110	=110	=110	=110	=110
8G'\L	.	(4B/	.	4d/]	.	2ff\]	.
8G'\J	.	.	.	.	.	.	.
8r	.	4d\)	.	2g/	.	.	.
(16B\LL	.	.	.	.	.	.	.
16G\JJ)	.	.	.	.	.	.	.
(8c\L	.	(8e\L	.	.	.	2ee\	.
8B\	.	8d\	.	.	.	.	.
8A\	.	8c\	.	4c/	.	.	.
8G\J)	.	8B\J)	.	.	.	.	.
=111	=111	=111	=111	=111	=111	=111	=111
8F\L	.	(4.c\	.	(4.a/	.	(4.dd\	.
8F\	.	.	.	.	.	.	.
8F\	.	.	.	.	.	.	.
8F\J	.	8A/)	.	8f/)	.	16ff\LL	.
.	.	.	.	.	.	16aa\JJ)	.
8G\L	.	8G'\L	.	(8e/L	.	(4cc\	.
8G\	.	(8e\	.	8g/)	.	.	.
8G\	.	8d\	.	(8f/	.	4b\)	.
8G\J	.	8f\J)	.	8d/J)	.	.	.
=112	=112	=112	=112	=112	=112	=112	=112
4C/	.	4e\	.	4c/	.	(8cc/L	.
.	.	.	.	.	.	8g/J)	.
4r	.	4r	.	4r	.	8g'/L	.
.	.	.	.	.	.	8g'/J	.
2r	.	2r	.	2r	.	8g/L	.
.	.	.	.	.	.	8g/	.
.	.	.	.	.	.	8g/	.
.	.	.	.	.	.	8g/J	.
=113	=113	=113	=113	=113	=113	=113	=113
8AA'/L	.	4E/	.	(4c#/	.	2g/	.
8AA'/J	.	.	.	.	.	.	.
8r	.	2A/	.	4e/)	.	.	.
(16C#/LL	.	.	.	.	.	.	.
16AA/JJ)	.	.	.	.	.	.	.
(8D/L	.	.	.	(8f/L	.	[2f/	.
8Cn/	.	.	.	8e/	.	.	.
8BB/	.	[4D/	.	8d/	.	.	.
8AA/J)	.	.	.	8cn/J)	.	.	.
=114	=114	=114	=114	=114	=114	=114	=114
8GG'/L	.	4D/]	.	(4B/	.	2f/]	.
8GG'/J	.	.	.	.	.	.	.
8r	.	2G/	.	4d/)	.	.	.
(16BB/LL	.	.	.	.	.	.	.
16GG/JJ)	.	.	.	.	.	.	.
(8C/L	.	.	.	(8e/L	.	2e/	.
8BB/	.	.	.	8d/	.	.	.
8AA/	.	[4C/	.	8c/	.	.	.
8GG/J)	.	.	.	8B/J)	.	.	.
=115	=115	=115	=115	=115	=115	=115	=115
8FF/L	.	(4C/]	.	(4A/	.	(4.d/	.
8FF/	.	.	.	.	.	.	.
8FF/	.	4A/)	.	4f/)	.	.	.
8FF/J	.	.	.	.	.	16f/LL	.
.	.	.	.	.	.	16a/JJ)	.
8GG/L	.	(4G/	.	(4e/	.	(4c/	.
8GG/	.	.	.	.	.	.	.
8GG/	.	4F/)	.	4d/)	.	4B/)	.
8GG/J	.	.	.	.	.	.	.
=116	=116	=116	=116	=116	=116	=116	=116
4C/	f	4E/	f	4c/	f	(8c/L	f
.	.	.	.	.	.	8e/J)	.
4r	.	4r	.	4r	.	8G'/L	p
.	.	.	.	.	.	8G'/J	.
4BB/	.	4F/	.	4G/	.	(8d/L	f
.	.	.	.	.	.	8f/J)	.
4r	.	4r	.	4r	.	8G'/L	p
.	.	.	.	.	.	8G'/J	.
=117	=117	=117	=117	=117	=117	=117	=117
4C/	.	4E/	.	4G/	.	(8e/L	f
.	.	.	.	.	.	8g/J)	.
4r	.	4r	.	4r	.	8cc'\L	p
.	.	.	.	.	.	8cc'\J	.
!	!	!	!	!	!	! 16ggP/	!
(4F\	.	(4A/	.	(4d/	.	8ffp\L	f
.	.	.	.	.	.	16ee\L	.
.	.	.	.	.	.	16dd\JJ	.
!	!	!	!	!	!	! 16eeP/	!
4G\)	.	4d\)	.	4f/)	.	8ddp\L	.
.	.	.	.	.	.	16cc\L	.
.	.	.	.	.	.	16b\JJ	.
=118	=118	=118	=118	=118	=118	=118	=118
4C/	.	4c\	.	4e/	.	(8cc\L	f
.	.	.	.	.	.	8ee\J)	.
4r	.	4r	.	4r	.	8g'/L	p
.	.	.	.	.	.	8g'/J	.
4BB/	.	4f\	.	4g/	.	(8dd\L	f
.	.	.	.	.	.	8ff\J)	.
4r	.	4r	.	4r	.	8g'/L	p
.	.	.	.	.	.	8g'/J	.
=119	=119	=119	=119	=119	=119	=119	=119
4C/	.	4e\	.	4g/	.	(8ee\L	f
.	.	.	.	.	.	8gg\J)	.
4r	.	4r	.	4r	.	8g'/L	p
.	.	.	.	.	.	8g'/J	.
!	!	!	!	!	!	! 16ggP/	!
4F\	.	2d\	.	(4a/	.	8ffp\L	f
.	.	.	.	.	.	16ee\L	.
.	.	.	.	.	.	16dd\JJ	.
!	!	!	!	!	!	! 16eeP/	!
4G\	.	.	.	4f/)	.	8ddp\L	.
.	.	.	.	.	.	16cc\L	.
.	.	.	.	.	.	16b\JJ	.
=120	=120	=120	=120	=120	=120	=120	=120
4C/	.	4c\	.	4e/	.	4cc\	.
(4e\	p	(4e\	p	(4g/	p	(4cc\	p
4d\	.	4f\	.	4b\	.	4dd\	.
4c\)	.	4g\)	.	4cc\)	.	4ee\)	.
=121	=121	=121	=121	=121	=121	=121	=121
(4B\	f	2g\	f	(4dd\	f	(4ff\	f
4c\)	.	.	.	4cc\)	.	4ee\)	.
4G\	p	(2B/	p	(8f/L	p	(8dd\L	p
.	.	.	.	8e/	.	8cc\	.
4GG/	.	.	.	8f/	.	8dd\	.
.	.	.	.	8g/J)	.	8ee\J)	.
=122	=122	=122	=122	=122	=122	=122	=122
4C/	.	4c\)	.	4e/	.	4cc\	.
(4E\	.	(4E/	.	(4G/	.	(4c/	.
4D\	.	4F/	.	4B/	.	4d/	.
4C/)	.	4G/)	.	4c/)	.	4e/)	.
=123	=123	=123	=123	=123	=123	=123	=123
(4BB/	f	(4A/	f	(4d/	f	(4f/	f
4C/)	.	4G/)	.	4c/)	.	4e/)	.
4GG/	p	(8F/L	p	(2B/	p	(8d/L	p
.	.	8E/	.	.	.	8c/	.
4GG/	.	8F/	.	.	.	8d/	.
.	.	8G/J)	.	.	.	8e/J)	.
=124	=124	=124	=124	=124	=124	=124	=124
[1CC/	.	2E/	.	2c/	.	2c/	.
.	.	(8F/L	.	2B/	.	(8d/L	.
.	.	8E/	.	.	.	8c/	.
.	.	8F/	.	.	.	8d/	.
.	.	8G/J)	.	.	.	8e/J)	.
=125	=125	=125	=125	=125	=125	=125	=125
1CC/_	.	2E/	.	2c/	.	2c/	.
.	.	(8F/L	.	2B/)	.	(8d/L	.
.	.	8E/	.	.	.	8c/	.
.	.	8F/	.	.	.	8d/	.
.	.	8G/J)	.	.	.	8e/J)	.
=126	=126	=126	=126	=126	=126	=126	=126
4CC/]	.	4E/	.	4c/	.	4c/	.
4C/	f	4G/	f	4ee\ 4cc\	f	4ccc\ 4ee\	f
4CC/	.	4c\	.	4ee\ 4cc\ 4g\	.	4ccc\ 4ee\	.
4r	.	4r	.	4r	.	4r	.
==:|!	==:|!	==:|!	==:|!	==:|!	==:|!	==:|!	==:|!
*-	*-	*-	*-	*-	*-	*-	*-
!!!RWG: Appoggiaturas of spine 'Violino 1' need manual editing in measures: 13, 14, 15, 15, 17, 17, 21, 21, 23, 23, 30, 43, 43, 45, 45, 54, 54, 56, 56, 58, 58, 59, 59, 87, 88, 89, 89, 91, 91, 95, 95, 97, 97, 104, 117, 117, 119, 119
!!!RWG: Appoggiaturas of spine 'Violino 2' need manual editing in measures: 13, 14, 15, 15, 17, 17, 22, 22, 24, 24, 87, 88, 89, 89, 91, 91, 96, 96, 98, 98, 104
!!!RWG: Key is interpreted using the Humdrum key tool.
!!!AFT: stage2
!!!END: 1994/02/17
!!!KEY: 2017828942
!!!EMD: Converted from MuseData to Humdrum Dec 16, 2000, by Andreas Kornstaedt using muse2kern.
!!!EMD: Manual editing by Craig Sapp, Nov 2001
